icons/emrald.svg

<svg width="24" height="24" viewBox="0 0 24 24" fill="none" xmlns="http://www.w3.org/2000/svg">
<path fill-rule="evenodd" clip-rule="evenodd" d="M10.4924 4.66495L6.77712 10.3884L6.70679 10.4529C5.84446 11.2434 5.80981 12.6492 6.73032 13.5697L6.78612 13.6255L10.4924 19.3352C11.2741 20.1406 12.6115 20.1741 13.5168 19.3211L17.2228 13.6117L17.2932 13.5472C18.1555 12.7567 18.1901 11.3509 17.2696 10.4304L17.2138 10.3746L13.5168 4.679C12.6115 3.82604 11.2741 3.85949 10.4924 4.66495ZM9.34714 3.69326C10.7567 2.15558 13.1509 2.19023 14.6303 3.66972L14.6861 3.72552L18.3884 9.42905C19.7871 10.8882 19.8232 13.1853 18.3801 14.5838L14.6861 20.2746L14.6303 20.3304C13.1509 21.8099 10.7567 21.8445 9.34714 20.3069L9.30493 20.2608L5.61157 14.571C4.21284 13.1119 4.17673 10.8148 5.61982 9.41634L9.30493 3.7393L9.34714 3.69326Z" fill="black"/>
</svg>

<svg xmlns="http://www.w3.org/2000/svg" fill="none" viewBox="0 0 24 24">
  <path fill="#000" fill-rule="evenodd" d="m10.492 4.665-3.715 5.723-.07.065c-.863.79-.897 2.196.023 3.117l.056.056 3.706 5.71c.782.805 2.12.838 3.025-.015l3.706-5.71.07-.064c.863-.79.897-2.196-.023-3.117l-.056-.055-3.697-5.696c-.905-.853-2.243-.82-3.025-.014Zm-1.145-.972c1.41-1.537 3.804-1.503 5.283-.023l.056.056 3.702 5.703c1.4 1.46 1.435 3.756-.008 5.155l-3.694 5.69-.056.056c-1.48 1.48-3.873 1.515-5.283-.023l-.042-.046-3.693-5.69c-1.4-1.46-1.435-3.756.008-5.155L9.305 3.74l.042-.046Z" clip-rule="evenodd"/>
</svg>
